packages/core/src/svgs/nbt.svg

<svg width="24" height="24" viewBox="0 0 24 24" fill="none" xmlns="http://www.w3.org/2000/svg">
<g clip-path="url(#clip0_31_14619)">
<path d="M0 0H24V24H0V0Z" fill="#F0F3FA"/>
<path fill-rule="evenodd" clip-rule="evenodd" d="M19.2858 12.0001C19.2858 13.9324 18.5182 15.7855 17.1518 17.1518C15.7855 18.5182 13.9324 19.2858 12.0001 19.2858C10.0678 19.2858 8.21463 18.5182 6.84829 17.1518C5.48196 15.7855 4.71436 13.9324 4.71436 12.0001C4.71436 10.0678 5.48196 8.21463 6.84829 6.84829C8.21463 5.48196 10.0678 4.71436 12.0001 4.71436C13.9324 4.71436 15.7855 5.48196 17.1518 6.84829C18.5182 8.21463 19.2858 10.0678 19.2858 12.0001ZM18.4286 12.0001C18.4286 13.705 17.7513 15.3402 16.5458 16.5458C15.3402 17.7513 13.705 18.4286 12.0001 18.4286C10.2951 18.4286 8.65997 17.7513 7.45438 16.5458C6.24879 15.3402 5.5715 13.705 5.5715 12.0001C5.5715 10.2951 6.24879 8.65997 7.45438 7.45438C8.65997 6.24879 10.2951 5.5715 12.0001 5.5715C13.705 5.5715 15.3402 6.24879 16.5458 7.45438C17.7513 8.65997 18.4286 10.2951 18.4286 12.0001Z" fill="url(#paint0_linear_31_14619)"/>
<path d="M15.4284 13.6026C15.4284 14.1341 14.927 14.5712 14.357 14.5712C13.787 14.5712 13.2856 14.1341 13.2856 13.6026V10.2855C13.2856 9.64265 12.9127 8.99979 12.0513 8.99979H11.9484C11.087 8.99979 10.7141 9.64265 10.7141 10.2855V13.6026C10.7141 14.1341 10.2127 14.5712 9.64272 14.5712C9.07272 14.5712 8.57129 14.1341 8.57129 13.6026V9.85693C8.57129 8.14693 10.1141 6.85693 11.9313 6.85693H12.0341C13.8341 6.85693 15.4284 8.15551 15.4284 9.85693V13.6026Z" fill="url(#paint1_linear_31_14619)"/>
<path d="M9.64272 8.99979C9.92688 8.99979 10.1994 8.88691 10.4003 8.68598C10.6013 8.48504 10.7141 8.21252 10.7141 7.92836C10.7141 7.6442 10.6013 7.37168 10.4003 7.17075C10.1994 6.96982 9.92688 6.85693 9.64272 6.85693C9.35856 6.85693 9.08604 6.96982 8.8851 7.17075C8.68417 7.37168 8.57129 7.6442 8.57129 7.92836C8.57129 8.21252 8.68417 8.48504 8.8851 8.68598C9.08604 8.88691 9.35856 8.99979 9.64272 8.99979Z" fill="url(#paint2_linear_31_14619)"/>
<path opacity="0.5" d="M8.57129 15.4287H15.4284V16.2859H8.57129V15.4287Z" fill="#2A1F63"/>
</g>
<defs>
<linearGradient id="paint0_linear_31_14619" x1="17.3572" y1="6.64293" x2="6.64293" y2="17.3572" gradientUnits="userSpaceOnUse">
<stop stop-color="#AC89DD"/>
<stop offset="1" stop-color="#9864E6"/>
</linearGradient>
<linearGradient id="paint1_linear_31_14619" x1="8.57129" y1="8.99979" x2="15.6513" y2="13.2469" gradientUnits="userSpaceOnUse">
<stop offset="0.14" stop-color="#7B72DC"/>
<stop offset="0.35" stop-color="#7A73E6"/>
<stop offset="1" stop-color="#BC9CEB"/>
</linearGradient>
<linearGradient id="paint2_linear_31_14619" x1="8.99986" y1="7.07122" x2="10.2856" y2="8.57122" gradientUnits="userSpaceOnUse">
<stop stop-color="#DFE8F7"/>
<stop offset="1" stop-color="#BBBBF1"/>
</linearGradient>
<clipPath id="clip0_31_14619">
<rect width="24" height="24" fill="white"/>
</clipPath>
</defs>
</svg>

<svg xmlns="http://www.w3.org/2000/svg" width="24" height="24" fill="none" viewBox="0 0 24 24"><g clip-path="url(#a)"><path fill="#F0F3FA" d="M0 0h24v24H0z"/><path fill="url(#b)" fill-rule="evenodd" d="M19.286 12a7.285 7.285 0 1 1-14.57 0 7.285 7.285 0 0 1 14.57 0m-.857 0A6.429 6.429 0 1 1 5.57 12a6.429 6.429 0 0 1 12.858 0" clip-rule="evenodd"/><path fill="url(#c)" d="M15.428 13.603c0 .531-.501.968-1.071.968s-1.071-.437-1.071-.968v-3.317c0-.643-.373-1.286-1.235-1.286h-.103c-.861 0-1.234.643-1.234 1.286v3.317c0 .531-.501.968-1.071.968s-1.072-.437-1.072-.968V9.857c0-1.71 1.543-3 3.36-3h.103c1.8 0 3.394 1.299 3.394 3z"/><path fill="url(#d)" d="M9.643 9a1.071 1.071 0 1 0 0-2.143 1.071 1.071 0 0 0 0 2.143"/><path fill="#2A1F63" d="M8.571 15.429h6.857v.857H8.571z" opacity=".5"/></g><defs><linearGradient id="b" x1="17.357" x2="6.643" y1="6.643" y2="17.357" gradientUnits="userSpaceOnUse"><stop stop-color="#AC89DD"/><stop offset="1" stop-color="#9864E6"/></linearGradient><linearGradient id="c" x1="8.571" x2="15.651" y1="9" y2="13.247" gradientUnits="userSpaceOnUse"><stop offset=".14" stop-color="#7B72DC"/><stop offset=".35" stop-color="#7A73E6"/><stop offset="1" stop-color="#BC9CEB"/></linearGradient><linearGradient id="d" x1="9" x2="10.286" y1="7.071" y2="8.571" gradientUnits="userSpaceOnUse"><stop stop-color="#DFE8F7"/><stop offset="1" stop-color="#BBBBF1"/></linearGradient><clipPath id="a"><path fill="#fff" d="M0 0h24v24H0z"/></clipPath></defs></svg>
